X: 36105
T: Schottis Fran Idre
R: polka
M: 2/4
K: Dminor
L:1/16
|:a2ge f2ed|^c2A2 A4|A=B^cd efec|d^cdf a4|
a2ge f2ed|^c2A2 A4|A=B^cd efec|d>ed^c d4:|
|:f2fg f2ed|e2a2 a2ge|f2fg f2ed|^cdec A3e|
f2fg f2ed|e2a2 a2ge|f2df eA^ce|d>ed^c d4:|
|:d2dd d^ced|^c2A2 A2ag|f2ff faaf|fee^c A4|
d2dd d^ced|^c2A2 A2ag|f2df eA^ce|d>ed^c d4:|

